assets/img/icons/duotone-icons/Files/Upload-folder.svg

<?xml version="1.0" encoding="UTF-8"?>
<svg width="24px" height="24px" viewBox="0 0 24 24" version="1.1" xmlns="http://www.w3.org/2000/svg" xmlns:xlink="http://www.w3.org/1999/xlink">
    <!-- Generator: Sketch 52.2 (67145) - http://www.bohemiancoding.com/sketch -->
    <title>Stockholm-icons / Files / Upload-folder</title>
    <desc>Created with Sketch.</desc>
    <g id="Stockholm-icons-/-Files-/-Upload-folder" stroke="none" stroke-width="1" fill="none" fill-rule="evenodd">
        <rect id="bound" x="0" y="0" width="24" height="24"></rect>
        <path d="M3.5,21 L20.5,21 C21.3284271,21 22,20.3284271 22,19.5 L22,8.5 C22,7.67157288 21.3284271,7 20.5,7 L10,7 L7.43933983,4.43933983 C7.15803526,4.15803526 6.77650439,4 6.37867966,4 L3.5,4 C2.67157288,4 2,4.67157288 2,5.5 L2,19.5 C2,20.3284271 2.67157288,21 3.5,21 Z" id="Combined-Shape" fill="#335EEA" opacity="0.3"></path>
        <path d="M10.7576713,10.293016 L10.7576713,12.4161 L8.75,12.4161 C8.47385763,12.4161 8.25,12.6399576 8.25,12.9161 L8.25,14.08392 C8.25,14.3600624 8.47385763,14.58392 8.75,14.58392 L10.7576713,14.58392 L10.7576713,16.7070039 C10.7576713,16.9831463 10.9815289,17.2070039 11.2576713,17.2070039 C11.3818701,17.2070039 11.5016234,17.16078 11.5936123,17.0773331 L15.1288855,13.8703391 C15.3334126,13.684804 15.3488087,13.3685961 15.1632736,13.164069 C15.1523755,13.1520553 15.1408992,13.140579 15.1288855,13.1296809 L11.5936123,9.9226869 C11.3890852,9.73715181 11.0728773,9.75254789 10.8873422,9.95707501 C10.8038953,10.0490639 10.7576713,10.1688172 10.7576713,10.293016 Z" id="Shape" fill="#335EEA"></path>
    </g>
</svg>

<svg width="24" height="24" viewBox="0 0 24 24" xmlns="http://www.w3.org/2000/svg"><g fill="none" fill-rule="evenodd"><path d="M0 0h24v24H0z"/><path d="M3.5 21h17a1.5 1.5 0 001.5-1.5v-11A1.5 1.5 0 0020.5 7H10L7.44 4.44A1.5 1.5 0 006.378 4H3.5A1.5 1.5 0 002 5.5v14A1.5 1.5 0 003.5 21z" fill="#335EEA" opacity=".3"/><path d="M10.758 10.293v2.123H8.75a.5.5 0 00-.5.5v1.168a.5.5 0 00.5.5h2.008v2.123a.5.5 0 00.836.37l3.535-3.207a.5.5 0 000-.74l-3.535-3.207a.5.5 0 00-.836.37z" fill="#335EEA"/></g></svg>
